icons/desktop/20/sparkles-20.svg

<svg width="20" height="20" viewBox="0 0 20 20" fill="none" xmlns="http://www.w3.org/2000/svg">
<path d="M3.02889 14.3161C3.20488 13.8941 3.79622 13.8942 3.97225 14.3161C4.00624 14.3961 4.03792 14.4782 4.06991 14.5622C4.17284 14.834 4.25204 15.0919 4.31502 15.3308C4.36202 15.5087 4.50618 15.6412 4.68416 15.6882C4.89116 15.7422 5.11044 15.8093 5.33944 15.8923C5.45735 15.9352 5.57133 15.9791 5.68026 16.0251C6.10624 16.2041 6.10918 16.7953 5.68319 16.9743C5.58329 17.0163 5.48147 17.0574 5.37459 17.0964C5.1316 17.1854 4.8992 17.2562 4.68221 17.3132C4.50521 17.3592 4.36102 17.4906 4.31502 17.6686C4.24807 17.9234 4.16226 18.2002 4.0494 18.4919C4.0244 18.5579 3.99727 18.6232 3.97127 18.6862C3.79627 19.1052 3.20487 19.1052 3.02987 18.6862C3.00388 18.6233 2.97773 18.5578 2.95174 18.4919C2.83888 18.2002 2.75307 17.9234 2.68612 17.6686C2.64012 17.4916 2.49593 17.3602 2.31893 17.3132C2.10111 17.2562 1.8693 17.1853 1.62752 17.0964C1.52052 17.0564 1.41695 17.0163 1.31795 16.9743C0.893198 16.7953 0.895167 16.2032 1.32088 16.0251C1.42988 15.9791 1.54468 15.9353 1.66268 15.8923C1.89146 15.8094 2.11016 15.7421 2.31698 15.6882C2.49498 15.6422 2.63912 15.5098 2.68612 15.3308C2.7491 15.0909 2.82929 14.833 2.93123 14.5622C2.96323 14.4782 2.9959 14.3961 3.02889 14.3161Z" fill="black"/>
<path fill-rule="evenodd" clip-rule="evenodd" d="M10.4439 3.37567C11.2096 1.54056 13.7908 1.54208 14.5572 3.3747C14.6486 3.59392 14.7399 3.82222 14.8277 4.05536C15.1104 4.80527 15.3306 5.51896 15.5035 6.17938L15.5211 6.23114C15.571 6.34987 15.6839 6.45708 15.8551 6.50165C16.4271 6.65091 17.0343 6.83568 17.6676 7.06513C17.9965 7.18389 18.3115 7.30895 18.6119 7.43427H18.6138C20.4474 8.2034 20.4733 10.7851 18.6207 11.5622L18.6197 11.5632C18.3461 11.6776 18.0614 11.7896 17.7672 11.8981L17.7662 11.8991C17.0965 12.1453 16.4544 12.3421 15.8531 12.4997C15.6576 12.5511 15.5395 12.6824 15.5045 12.8161C15.3208 13.5204 15.0819 14.2863 14.7701 15.0934V15.0954C14.6999 15.2761 14.6272 15.4545 14.5543 15.6296V15.6315C13.7906 17.4555 11.2097 17.4571 10.4469 15.6306L10.4459 15.6296C10.3734 15.4556 10.302 15.2771 10.231 15.0934L10.2301 15.0925C9.91954 14.2859 9.68111 13.5204 9.49666 12.8171C9.46159 12.6833 9.34464 12.551 9.14901 12.4997C8.54823 12.3422 7.90565 12.1457 7.23397 11.8981C6.93963 11.7896 6.65505 11.6766 6.38143 11.5622C4.52881 10.7851 4.55385 8.20349 6.38729 7.43427C6.68786 7.30842 7.00439 7.18363 7.3326 7.06513C7.96575 6.83568 8.57218 6.65093 9.14412 6.50165C9.34241 6.44965 9.46153 6.31672 9.49764 6.17938C9.66989 5.51777 9.89131 4.80488 10.1734 4.05634C10.2618 3.82081 10.3529 3.59384 10.4439 3.37567ZM12.943 4.0495C12.7751 3.64871 12.2245 3.65085 12.0582 4.0495C11.9734 4.25275 11.8905 4.45976 11.8111 4.67157V4.67352C11.5517 5.36188 11.3486 6.01624 11.191 6.62177L11.19 6.62372C10.9779 7.4319 10.3348 7.99909 9.58748 8.19501C9.06424 8.33157 8.50815 8.50048 7.9283 8.71063L7.92733 8.71161C7.77858 8.76531 7.63176 8.82033 7.48787 8.87665L7.06405 9.04852C6.6433 9.22545 6.6545 9.77802 7.05526 9.94794C7.3074 10.0534 7.57004 10.1572 7.83944 10.2565C8.45365 10.4829 9.04122 10.6628 9.59237 10.8073C10.3363 11.002 10.979 11.5667 11.19 12.3747C11.3595 13.0208 11.5787 13.7238 11.8639 14.4645C11.9286 14.6322 11.9948 14.7953 12.0621 14.9567C12.2253 15.3469 12.7738 15.3486 12.939 14.9567L13.1383 14.4616C13.4241 13.7216 13.6429 13.0198 13.8111 12.3747C14.022 11.567 14.6652 11.0022 15.4088 10.8073L15.8287 10.6921C16.2551 10.5698 16.7012 10.4258 17.1617 10.2565L17.5592 10.1042L17.9449 9.94794C18.3465 9.77841 18.3583 9.2255 17.9371 9.04852C17.6579 8.93205 17.3704 8.81867 17.0738 8.71161L17.0728 8.71063C16.4928 8.5004 15.9371 8.33159 15.4137 8.19501C14.6644 7.99963 14.0228 7.43029 13.8111 6.62372L13.8101 6.62274C13.6512 6.0156 13.4491 5.36105 13.19 4.67352L12.943 4.0495Z" fill="black"/>
<path d="M3.02889 1.3161C3.20488 0.894124 3.79622 0.894165 3.97225 1.3161C4.00624 1.39607 4.03792 1.47823 4.06991 1.5622C4.17284 1.83402 4.25204 2.09188 4.31502 2.33075C4.36202 2.50874 4.50618 2.64116 4.68416 2.68817C4.89116 2.74217 5.11044 2.80928 5.33944 2.89227C5.45735 2.93525 5.57133 2.97912 5.68026 3.02509C6.10625 3.20409 6.10918 3.79531 5.68319 3.97431C5.58329 4.01626 5.48147 4.05741 5.37459 4.09638C5.1316 4.18537 4.8992 4.25617 4.68221 4.31317C4.50521 4.35917 4.36102 4.49064 4.31502 4.66864C4.24807 4.92342 4.16226 5.20018 4.0494 5.49188C4.0244 5.55788 3.99727 5.62322 3.97127 5.68622C3.79627 6.10522 3.20487 6.10522 3.02987 5.68622C3.00388 5.62325 2.97773 5.55785 2.95174 5.49188C2.83888 5.20019 2.75307 4.92341 2.68612 4.66864C2.64012 4.49164 2.49593 4.36017 2.31893 4.31317C2.10111 4.25621 1.8693 4.18528 1.62752 4.09638C1.52052 4.05638 1.41695 4.01631 1.31795 3.97431C0.893198 3.79525 0.895167 3.20318 1.32088 3.02509C1.42988 2.97909 1.54468 2.93527 1.66268 2.89227C1.89146 2.80937 2.11016 2.74213 2.31698 2.68817C2.49498 2.64217 2.63912 2.50975 2.68612 2.33075C2.7491 2.09086 2.82929 1.83305 2.93123 1.5622C2.96323 1.47821 2.9959 1.39609 3.02889 1.3161Z" fill="black"/>
</svg>

<!-- This Source Code Form is subject to the terms of the Mozilla Public
   - License, v. 2.0. If a copy of the MPL was not distributed with this
   - file, You can obtain one at http://mozilla.org/MPL/2.0/. -->
<svg xmlns="http://www.w3.org/2000/svg" width="20" height="20" fill="context-fill" fill-opacity="context-fill-opacity" viewBox="0 0 20 20">
    <path d="M3.029 14.316a.51.51 0 0 1 .943 0q.05.12.098.246.152.41.245.769a.51.51 0 0 0 .37.357 7.4 7.4 0 0 1 .995.337c.426.18.43.77.003.95q-.15.062-.308.121a8 8 0 0 1-.693.217.5.5 0 0 0-.367.356 8 8 0 0 1-.266.823q-.038.1-.078.194a.51.51 0 0 1-.941 0l-.078-.194a8 8 0 0 1-.266-.823.5.5 0 0 0-.367-.356 7.5 7.5 0 0 1-1.001-.339.513.513 0 0 1 .003-.949 7.4 7.4 0 0 1 .996-.337.5.5 0 0 0 .37-.357 8 8 0 0 1 .342-1.015" />
    <path fill-rule="evenodd" d="M10.444 3.376c.766-1.835 3.347-1.834 4.113-.001a21 21 0 0 1 .947 2.804l.017.052c.05.119.163.226.334.27a20.6 20.6 0 0 1 2.757.933h.002c1.833.77 1.86 3.351.007 4.128l-.001.001a22 22 0 0 1-.853.335v.001c-.67.246-1.313.443-1.914.6-.195.052-.313.183-.348.317-.184.704-.423 1.47-.735 2.277v.002q-.106.272-.216.535v.002c-.763 1.824-3.344 1.825-4.107-.001l-.001-.001a21.543 21.543 0 0 1-.95-2.812.47.47 0 0 0-.347-.318 21 21 0 0 1-2.768-.938c-1.852-.777-1.827-3.359.006-4.128a20 20 0 0 1 2.757-.932c.198-.052.318-.185.354-.323a21 21 0 0 1 .946-2.803m2.499.674a.476.476 0 0 0-.885 0q-.128.304-.247.622v.002c-.26.688-.462 1.342-.62 1.948l-.001.002c-.212.808-.855 1.375-1.603 1.571-.523.137-1.079.305-1.659.516q-.224.081-.44.166l-.424.172a.482.482 0 0 0-.009.899q.38.159.784.309c.615.226 1.202.406 1.753.55.744.195 1.387.76 1.598 1.568a20 20 0 0 0 .872 2.582c.163.39.712.392.877 0l.2-.495c.285-.74.504-1.442.672-2.087.211-.808.854-1.373 1.598-1.568l.42-.115q.64-.182 1.333-.435l.397-.153.386-.156a.482.482 0 0 0-.008-.9q-.42-.175-.863-.336l-.001-.001c-.58-.21-1.136-.38-1.66-.516-.749-.195-1.39-.765-1.602-1.571v-.001a20 20 0 0 0-.621-1.95z" clip-rule="evenodd" />
    <path d="M3.029 1.316a.51.51 0 0 1 .943 0q.05.12.098.246.152.41.245.769a.51.51 0 0 0 .37.357 7.4 7.4 0 0 1 .995.337c.426.18.43.77.003.95q-.15.062-.308.121-.366.133-.693.217a.5.5 0 0 0-.367.356 8 8 0 0 1-.266.823q-.038.1-.078.194a.51.51 0 0 1-.941 0l-.078-.194a8 8 0 0 1-.266-.823.5.5 0 0 0-.367-.356 7.5 7.5 0 0 1-1.001-.339.513.513 0 0 1 .003-.949 7.4 7.4 0 0 1 .996-.337.5.5 0 0 0 .37-.357 8 8 0 0 1 .342-1.015" />
</svg>
